; G-Code generated by Simplify3D(R) Version 4.0.1
; Oct 29, 2018 at 8:21:12 PM
; Settings Summary
;   processName,Process1
;   applyToModels,ala,yla,oikeia
;   profileName,FlashForge Creator Pro (modified)
;   profileVersion,2018-01-19 08:00:00
;   baseProfile,
;   printMaterial,PLA
;   printQuality,Medium
;   printExtruders,Right Extruder Only
;   extruderName,Right Extruder,Left Extruder
;   extruderToolheadNumber,0,1
;   extruderDiameter,0.4,0.4
;   extruderAutoWidth,0,0
;   extruderWidth,0.4,0.4
;   extrusionMultiplier,0.9,0.9
;   extruderUseRetract,1,1
;   extruderRetractionDistance,1,1
;   extruderExtraRestartDistance,0,0
;   extruderRetractionZLift,0,0
;   extruderRetractionSpeed,1200,1200
;   extruderUseCoasting,0,0
;   extruderCoastingDistance,0.2,0.2
;   extruderUseWipe,0,0
;   extruderWipeDistance,5,5
;   primaryExtruder,0
;   layerHeight,0.2
;   topSolidLayers,3
;   bottomSolidLayers,3
;   perimeterOutlines,2
;   printPerimetersInsideOut,1
;   startPointOption,2
;   startPointOriginX,0
;   startPointOriginY,0
;   sequentialIslands,0
;   spiralVaseMode,0
;   firstLayerHeightPercentage,90
;   firstLayerWidthPercentage,100
;   firstLayerUnderspeed,0.5
;   useRaft,0
;   raftExtruder,0
;   raftTopLayers,3
;   raftBaseLayers,2
;   raftOffset,3
;   raftSeparationDistance,0.14
;   raftTopInfill,100
;   aboveRaftSpeedMultiplier,0.3
;   useSkirt,1
;   skirtExtruder,0
;   skirtLayers,1
;   skirtOutlines,2
;   skirtOffset,4
;   usePrimePillar,0
;   primePillarExtruder,999
;   primePillarWidth,12
;   primePillarLocation,7
;   primePillarSpeedMultiplier,1
;   useOozeShield,0
;   oozeShieldExtruder,999
;   oozeShieldOffset,2
;   oozeShieldOutlines,1
;   oozeShieldSidewallShape,1
;   oozeShieldSidewallAngle,30
;   oozeShieldSpeedMultiplier,1
;   infillExtruder,0
;   internalInfillPattern,Rectilinear
;   externalInfillPattern,Rectilinear
;   infillPercentage,63
;   outlineOverlapPercentage,20
;   infillExtrusionWidthPercentage,100
;   minInfillLength,5
;   infillLayerInterval,1
;   internalInfillAngles,45,-45
;   overlapInternalInfillAngles,0
;   externalInfillAngles,45,-45
;   generateSupport,1
;   supportExtruder,0
;   supportInfillPercentage,30
;   supportExtraInflation,0
;   supportBaseLayers,0
;   denseSupportExtruder,0
;   denseSupportLayers,0
;   denseSupportInfillPercentage,70
;   supportLayerInterval,1
;   supportHorizontalPartOffset,0.3
;   supportUpperSeparationLayers,1
;   supportLowerSeparationLayers,1
;   supportType,0
;   supportGridSpacing,4
;   maxOverhangAngle,45
;   supportAngles,0
;   temperatureName,Right Extruder,Left Extruder,Heated Build Platform
;   temperatureNumber,0,1,0
;   temperatureSetpointCount,1,1,1
;   temperatureSetpointLayers,1,1,1
;   temperatureSetpointTemperatures,230,0,60
;   temperatureStabilizeAtStartup,0,0,0
;   temperatureHeatedBed,0,0,1
;   temperatureRelayBetweenLayers,0,0,0
;   temperatureRelayBetweenLoops,0,0,0
;   fanLayers,1,2
;   fanSpeeds,0,100
;   blipFanToFullPower,0
;   adjustSpeedForCooling,1
;   minSpeedLayerTime,15
;   minCoolingSpeedSlowdown,20
;   increaseFanForCooling,0
;   minFanLayerTime,45
;   maxCoolingFanSpeed,100
;   increaseFanForBridging,1
;   bridgingFanSpeed,100
;   use5D,1
;   relativeEdistances,1
;   allowEaxisZeroing,0
;   independentExtruderAxes,1
;   includeM10123,0
;   stickySupport,1
;   applyToolheadOffsets,0
;   gcodeXoffset,0
;   gcodeYoffset,0
;   gcodeZoffset,0
;   overrideMachineDefinition,1
;   machineTypeOverride,0
;   strokeXoverride,225
;   strokeYoverride,145
;   strokeZoverride,150
;   originOffsetXoverride,112.5
;   originOffsetYoverride,72.5
;   originOffsetZoverride,0
;   homeXdirOverride,1
;   homeYdirOverride,1
;   homeZdirOverride,-1
;   flipXoverride,1
;   flipYoverride,-1
;   flipZoverride,1
;   toolheadOffsets,0,0|34,0|0,0|0,0|0,0|0,0
;   overrideFirmwareConfiguration,1
;   firmwareTypeOverride,MakerBot/Sailfish Firmware
;   GPXconfigOverride,r1d
;   baudRateOverride,115200
;   overridePrinterModels,1
;   printerModelsOverride,FlashForge_CreatorPro.stl
;   startingGcode,; **** Replicator 1 dual start.gcode ****,M73 P0 ; enable build progress,G162 X Y F3000 ; home XY maximum,G161 Z F1200 ; home Z minimum,G92 Z-5 ; set Z to -5,G1 Z0 ; move Z to 0,G161 Z F100 ; home Z slowly,M132 X Y Z A B ; recall home offsets,M135 T0 ; load right extruder offsets,G1 X150 Y-70 Z30 F9000 ; move to wait position right hand side of the table,G130 X20 Y20 Z20 A20 B20 ; lower stepper Vrefs while heating,M126 S[fan_speed_pwm],M140 S[bed0_temperature] T0,M134 T0 ; stabilize bed temperature,M104 S[extruder0_temperature] T0,M133 T0 ; stabilize right extruder temperature,G130 X127 Y127 Z40 A127 B127 ; default stepper Vrefs,G92 A0 B0 ; zero extruders,G1 Z0.4 ; position nozzle,G1 X110 Y-70 E25 F300 ; purge nozzle,G1 X120 Y-70 Z0.15 F1200 ; slow wipe,G1 X110 Y-70 Z0.5 F1200 ; lift,G92 A0 B0 ; zero extruders,M73 P1 ;@body (notify GPX body has started),; **** end of start.gcode ****
;   layerChangeGcode,
;   retractionGcode,
;   toolChangeGcode,
;   endingGcode,; **** Replicator 1 dual end.gcode ****,M73 P100 ; end build progress,G1 Z150 F1000 ; send Z axis to bottom of machine,M140 S0 T0 ; cool down HBP,M104 S0 T0 ; cool down right extruder,M104 S0 T1 ; cool down left extruder,M127 ; stop blower fan,G162 X Y F3000 ; home XY maximum,M18 ; disable stepper,M72 P1 ; play Ta-Da song,; **** end of end.gcode ****
;   exportFileFormat,x3g
;   celebration,0
;   celebrationSong,Random Song
;   postProcessing,
;   defaultSpeed,3600
;   outlineUnderspeed,0.5
;   solidInfillUnderspeed,0.8
;   supportUnderspeed,0.8
;   rapidXYspeed,4200
;   rapidZspeed,1200
;   minBridgingArea,50
;   bridgingExtraInflation,0
;   bridgingExtrusionMultiplier,1
;   bridgingSpeedMultiplier,0.8
;   useFixedBridgingAngle,0
;   fixedBridgingAngle,0
;   applyBridgingToPerimeters,0
;   filamentDiameters,1.75|1.75|1.75|1.75|1.75|1.75
;   filamentPricesPerKg,46|46|46|46|46|46
;   filamentDensities,1.25|1.25|1.25|1.25|1.25|1.25
;   useMinPrintHeight,0
;   minPrintHeight,0
;   useMaxPrintHeight,0
;   maxPrintHeight,0
;   useDiaphragm,0
;   diaphragmLayerInterval,20
;   robustSlicing,1
;   mergeAllIntoSolid,0
;   onlyRetractWhenCrossingOutline,1
;   retractBetweenLayers,1
;   useRetractionMinTravel,0
;   retractionMinTravel,3
;   retractWhileWiping,0
;   onlyWipeOutlines,1
;   avoidCrossingOutline,0
;   maxMovementDetourFactor,3
;   toolChangeRetractionDistance,12
;   toolChangeExtraRestartDistance,-0.5
;   toolChangeRetractionSpeed,600
;   externalThinWallType,0
;   internalThinWallType,2
;   thinWallAllowedOverlapPercentage,10
;   singleExtrusionMinLength,1
;   singleExtrusionMinPrintingWidthPercentage,50
;   singleExtrusionMaxPrintingWidthPercentage,200
;   singleExtrusionEndpointExtension,0.2
;   horizontalSizeCompensation,0
G90
M83
; **** Replicator 1 dual start.gcode ****
M73 P0 ; enable build progress
G162 X Y F3000 ; home XY maximum
G161 Z F1200 ; home Z minimum
G92 Z-5 ; set Z to -5
G1 Z0 ; move Z to 0
G161 Z F100 ; home Z slowly
M132 X Y Z A B ; recall home offsets
M135 T0 ; load right extruder offsets
G1 X150 Y-70 Z30 F9000 ; move to wait position right hand side of the table
G130 X20 Y20 Z20 A20 B20 ; lower stepper Vrefs while heating
M127
M140 S60 T0
M134 T0 ; stabilize bed temperature
M104 S230 T0
M133 T0 ; stabilize right extruder temperature
G130 X127 Y127 Z40 A127 B127 ; default stepper Vrefs
G92 A0 B0 ; zero extruders
G1 Z0.4 ; position nozzle
G1 X110 Y-70 E25 F300 ; purge nozzle
G1 X120 Y-70 Z0.15 F1200 ; slow wipe
G1 X110 Y-70 Z0.5 F1200 ; lift
G92 A0 B0 ; zero extruders
M73 P1 ;@body (notify GPX body has started)
; **** end of start.gcode ****
G1 E-1.0000 F1200
G1 Z0.180 F1200
; process Process1
; layer 1, Z = 0.180
M135 T0
; tool H0.200 W0.400
; skirt
G1 X1.306 Y3.706 F4200
G1 E1.0000 F360
G1 X1.085 Y3.798 E0.0071 F1800
G1 X-97.683 Y3.798 E2.9565
G1 X-97.903 Y3.706 E0.0071
G1 X-100.415 Y1.194 E0.1063
G1 X-100.506 Y0.974 E0.0071
G1 X-100.506 Y-6.281 E0.2172
G1 X-100.785 Y-6.280 E0.0083
G1 X-101.007 Y-6.371 E0.0072
G1 X-103.542 Y-8.901 E0.1072
G1 X-103.634 Y-9.123 E0.0072
G1 X-103.586 Y-19.024 E0.2964
G1 X-103.495 Y-19.243 E0.0071
G1 X-100.985 Y-21.740 E0.1060
G1 X-100.765 Y-21.831 E0.0071
G1 X-100.506 Y-21.831 E0.0077
G1 X-100.506 Y-29.167 E0.2196
G1 X-100.415 Y-29.388 E0.0071
G1 X-97.910 Y-31.898 E0.1062
G1 X-97.690 Y-31.990 E0.0071
G1 X-55.097 Y-32.081 E1.2750
G1 X-53.447 Y-33.733 E0.0699
G1 X-53.226 Y-33.824 E0.0072
G1 X-43.415 Y-33.823 E0.2937
G1 X-43.195 Y-33.732 E0.0071
G1 X-41.520 Y-32.063 E0.0708
G1 X1.084 Y-32.061 E1.2753
G1 X1.304 Y-31.970 E0.0071
G1 X3.815 Y-29.461 E0.1062
G1 X3.907 Y-29.241 E0.0071
G1 X3.915 Y-21.899 E0.2198
G1 X4.250 Y-21.898 E0.0100
G1 X4.470 Y-21.807 E0.0071
G1 X6.973 Y-19.300 E0.1060
G1 X7.064 Y-19.080 E0.0071
G1 X7.075 Y-9.145 E0.2974
G1 X6.984 Y-8.924 E0.0071
G1 X4.475 Y-6.409 E0.1063
G1 X4.255 Y-6.318 E0.0071
G1 X3.909 Y-6.317 E0.0104
G1 X3.909 Y0.974 E0.2183
G1 X3.817 Y1.194 E0.0071
G1 X1.306 Y3.706 E0.1063
G1 X-1.503 Y19.039 F4200
G1 X-1.283 Y19.130 E0.0071 F1800
G1 X1.231 Y21.639 E0.1063
G1 X1.322 Y21.859 E0.0071
G1 X1.331 Y29.202 E0.2198
G1 X1.666 Y29.203 E0.0100
G1 X1.886 Y29.295 E0.0071
G1 X4.389 Y31.802 E0.1060
G1 X4.480 Y32.022 E0.0071
G1 X4.491 Y41.956 E0.2974
G1 X4.400 Y42.177 E0.0071
G1 X1.891 Y44.692 E0.1063
G1 X1.671 Y44.783 E0.0071
G1 X1.325 Y44.784 E0.0104
G1 X1.325 Y52.075 E0.2183
G1 X1.233 Y52.296 E0.0071
G1 X-1.279 Y54.808 E0.1063
G1 X-1.499 Y54.899 E0.0071
G1 X-100.267 Y54.899 E2.9565
G1 X-100.487 Y54.808 E0.0071
G1 X-102.999 Y52.296 E0.1063
G1 X-103.091 Y52.075 E0.0071
G1 X-103.091 Y44.820 E0.2172
G1 X-103.369 Y44.822 E0.0083
G1 X-103.592 Y44.730 E0.0072
G1 X-106.127 Y42.200 E0.1072
G1 X-106.218 Y41.978 E0.0072
G1 X-106.171 Y32.078 E0.2964
G1 X-106.079 Y31.858 E0.0071
G1 X-103.569 Y29.361 E0.1060
G1 X-103.349 Y29.270 E0.0071
G1 X-103.091 Y29.270 E0.0077
G1 X-103.091 Y21.932 E0.2197
G1 X-102.999 Y21.712 E0.0071
G1 X-100.490 Y19.200 E0.1063
G1 X-100.269 Y19.109 E0.0071
G1 X-1.503 Y19.039 E2.9565
G1 X10.409 Y33.633 F4200
G1 X10.409 Y-11.495 E1.3508 F1800
G1 X10.448 Y-11.644 E0.0046
G1 X11.556 Y-13.609 E0.0675
G1 X11.664 Y-13.720 E0.0046
G1 X48.444 Y-35.959 E1.2866
G1 X48.769 Y-35.964 E0.0097
G1 X49.880 Y-35.336 E0.0382
G1 X50.068 Y-35.414 E0.0061
G1 X89.587 Y-35.235 E1.1830
G1 X89.807 Y-35.143 E0.0071
G1 X92.305 Y-32.634 E0.1060
G1 X92.396 Y-32.414 E0.0071
G1 X92.396 Y54.534 E2.6027
G1 X92.304 Y54.755 E0.0072
G1 X89.787 Y57.267 E0.1065
G1 X89.566 Y57.359 E0.0072
G1 X80.141 Y57.341 E0.2821
G1 X80.051 Y57.379 E0.0029
G1 X48.057 Y57.413 E0.9577
G1 X47.976 Y57.402 E0.0024
G1 X46.842 Y57.086 E0.0352
G1 X46.767 Y57.054 E0.0024
G1 X11.665 Y35.859 E1.2274
G1 X11.557 Y35.748 E0.0046
G1 X10.448 Y33.783 E0.0675
G1 X10.409 Y33.633 E0.0046
G1 X10.809 Y33.581 F4200
G1 X10.809 Y-11.443 E1.3478 F1800
G1 X10.822 Y-11.493 E0.0015
G1 X11.879 Y-13.367 E0.0644
G1 X11.915 Y-13.404 E0.0015
G1 X48.559 Y-35.560 E1.2818
G1 X48.667 Y-35.562 E0.0032
G1 X49.935 Y-34.846 E0.0436
G1 X50.073 Y-34.983 E0.0058
G1 X50.146 Y-35.014 E0.0024
G1 X89.506 Y-34.836 E1.1782
G1 X89.579 Y-34.805 E0.0024
G1 X91.966 Y-32.408 E0.1013
G1 X91.996 Y-32.335 E0.0024
G1 X91.996 Y54.454 E2.5979
G1 X91.966 Y54.528 E0.0024
G1 X89.561 Y56.928 E0.1017
G1 X89.487 Y56.958 E0.0024
G1 X80.051 Y56.941 E0.2825
G1 X80.044 Y56.948 E0.0003
G1 X79.971 Y56.979 E0.0024
G1 X48.084 Y57.013 E0.9545
G1 X48.057 Y57.009 E0.0008
G1 X46.975 Y56.708 E0.0336
G1 X46.950 Y56.697 E0.0008
G1 X11.916 Y35.543 E1.2251
G1 X11.880 Y35.506 E0.0015
G1 X10.822 Y33.631 E0.0645
G1 X10.809 Y33.581 E0.0015
G1 X4.080 Y32.102 F4200
G1 X4.091 Y41.877 E0.2926 F1800
G1 X4.061 Y41.951 E0.0024
G1 X1.664 Y44.353 E0.1016
G1 X1.591 Y44.383 E0.0024
G1 X0.925 Y44.384 E0.0199
G1 X0.925 Y51.996 E0.2278
G1 X0.894 Y52.069 E0.0024
G1 X-1.505 Y54.469 E0.1016
G1 X-1.579 Y54.499 E0.0024
G1 X-100.187 Y54.499 E2.9518
G1 X-100.261 Y54.469 E0.0024
G1 X-102.660 Y52.069 E0.1016
G1 X-102.691 Y51.996 E0.0024
G1 X-102.691 Y44.417 E0.2269
G1 X-103.292 Y44.421 E0.0180
G1 X-103.366 Y44.391 E0.0024
G1 X-105.787 Y41.974 E0.1024
G1 X-105.818 Y41.900 E0.0024
G1 X-105.771 Y32.159 E0.2916
G1 X-105.740 Y32.086 E0.0024
G1 X-103.343 Y29.700 E0.1012
G1 X-103.270 Y29.670 E0.0024
G1 X-102.691 Y29.670 E0.0173
G1 X-102.691 Y22.012 E0.2292
G1 X-102.660 Y21.938 E0.0024
G1 X-100.263 Y19.539 E0.1015
G1 X-100.189 Y19.509 E0.0024
G1 X-1.582 Y19.439 E2.9517
G1 X-1.509 Y19.469 E0.0024
G1 X0.892 Y21.866 E0.1015
G1 X0.923 Y21.939 E0.0024
G1 X0.932 Y29.601 E0.2294
G1 X1.586 Y29.603 E0.0196
G1 X1.659 Y29.633 E0.0024
G1 X4.050 Y32.028 E0.1013
G1 X4.080 Y32.102 E0.0024
G1 X1.005 Y3.398 F4200
G1 X-97.603 Y3.398 E2.9518 F1800
G1 X-97.677 Y3.367 E0.0024
G1 X-100.076 Y0.968 E0.1016
G1 X-100.106 Y0.894 E0.0024
G1 X-100.106 Y-6.684 E0.2269
G1 X-100.707 Y-6.680 E0.0180
G1 X-100.782 Y-6.710 E0.0024
G1 X-103.203 Y-9.127 E0.1024
G1 X-103.234 Y-9.201 E0.0024
G1 X-103.187 Y-18.942 E0.2916
G1 X-103.156 Y-19.015 E0.0024
G1 X-100.759 Y-21.401 E0.1012
G1 X-100.686 Y-21.431 E0.0024
G1 X-100.106 Y-21.431 E0.0173
G1 X-100.106 Y-29.088 E0.2292
G1 X-100.076 Y-29.161 E0.0024
G1 X-97.683 Y-31.560 E0.1014
G1 X-97.609 Y-31.590 E0.0024
G1 X-54.931 Y-31.682 E1.2776
G1 X-53.220 Y-33.394 E0.0724
G1 X-53.147 Y-33.424 E0.0024
G1 X-43.494 Y-33.423 E0.2889
G1 X-43.421 Y-33.393 E0.0024
G1 X-41.685 Y-31.663 E0.0733
G1 X1.004 Y-31.661 E1.2779
G1 X1.078 Y-31.631 E0.0024
G1 X3.476 Y-29.235 E0.1015
G1 X3.507 Y-29.161 E0.0024
G1 X3.516 Y-21.500 E0.2293
G1 X4.170 Y-21.498 E0.0196
G1 X4.243 Y-21.468 E0.0024
G1 X6.634 Y-19.073 E0.1013
G1 X6.664 Y-19.000 E0.0024
G1 X6.675 Y-9.224 E0.2926
G1 X6.645 Y-9.150 E0.0024
G1 X4.248 Y-6.748 E0.1016
G1 X4.175 Y-6.718 E0.0024
G1 X3.509 Y-6.717 E0.0199
G1 X3.509 Y0.894 E0.2278
G1 X3.478 Y0.968 E0.0024
G1 X1.079 Y3.367 E0.1016
G1 X1.005 Y3.398 E0.0024
G1 E-1.0000 F1200
; inner perimeter
G1 X-1.291 Y-1.402 F4200
G1 E1.0000 F1200
G1 X-95.306 Y-1.402 E2.8143 F1350
G1 X-95.306 Y-11.517 E0.3028
G1 X-98.423 Y-11.496 E0.0933
G1 X-98.398 Y-16.631 E0.1537
G1 X-95.306 Y-16.631 E0.0925
G1 X-95.306 Y-26.795 E0.3042
G1 X-50.847 Y-26.891 E1.3309
G1 X-50.849 Y-28.624 E0.0519
G1 X-45.784 Y-28.623 E0.1516
G1 X-45.778 Y-26.863 E0.0527
G1 X-1.290 Y-26.861 E1.3317
G1 X-1.279 Y-16.713 E0.3038
G1 X1.867 Y-16.705 E0.0942
G1 X1.873 Y-11.515 E0.1554
G1 X-1.291 Y-11.511 E0.0947
G1 X-1.291 Y-1.402 E0.3026
; outer perimeter
G1 X-0.891 Y-1.002 F4200
G1 X-95.706 Y-1.002 E2.8382 F900
G1 X-95.706 Y-11.114 E0.3027
G1 X-98.825 Y-11.093 E0.0933
G1 X-98.796 Y-17.031 E0.1778
G1 X-95.706 Y-17.031 E0.0925
G1 X-95.706 Y-27.194 E0.3042
G1 X-51.247 Y-27.290 E1.3308
G1 X-51.249 Y-29.024 E0.0519
G1 X-45.386 Y-29.023 E0.1755
G1 X-45.379 Y-27.263 E0.0527
G1 X-0.891 Y-27.261 E1.3317
G1 X-0.879 Y-17.112 E0.3038
G1 X2.266 Y-17.104 E0.0942
G1 X2.273 Y-11.115 E0.1793
G1 X-0.891 Y-11.111 E0.0947
G1 X-0.891 Y-1.002 E0.3026
; solid layer
G1 X-1.494 Y-16.394 F4200
G1 X1.551 Y-13.349 E0.1289 F1440
G1 X1.550 Y-13.916 E0.0170
G1 X-0.927 Y-16.392 E0.1049
G1 X-0.360 Y-16.391 E0.0170
G1 X1.549 Y-14.482 E0.0808
G1 X1.549 Y-15.048 E0.0170
G1 X0.208 Y-16.389 E0.0568
G1 X0.775 Y-16.388 E0.0170
G1 X1.548 Y-15.614 E0.0327
G1 X1.548 Y-16.181 E0.0170
G1 X1.342 Y-16.386 E0.0087
G1 E-1.0000 F1200
G1 X-2.025 Y-26.541 F4200
G1 E1.0000 F1200
G1 X-1.610 Y-26.126 E0.0176 F1440
G1 X-1.609 Y-25.560 E0.0170
G1 X-2.590 Y-26.541 E0.0415
G1 X-3.156 Y-26.541 E0.0169
G1 X-1.608 Y-24.993 E0.0655
G1 X-1.608 Y-24.427 E0.0170
G1 X-3.722 Y-26.541 E0.0895
G1 X-4.288 Y-26.541 E0.0169
G1 X-1.607 Y-23.861 E0.1135
G1 X-1.606 Y-23.294 E0.0170
G1 X-4.853 Y-26.541 E0.1375
G1 X-5.419 Y-26.541 E0.0169
G1 X-1.606 Y-22.728 E0.1614
G1 X-1.605 Y-22.162 E0.0170
G1 X-5.985 Y-26.541 E0.1854
G1 X-6.550 Y-26.541 E0.0169
G1 X-1.604 Y-21.595 E0.2094
G1 X-1.604 Y-21.029 E0.0170
G1 X-7.116 Y-26.541 E0.2334
G1 X-7.682 Y-26.541 E0.0169
G1 X-1.603 Y-20.463 E0.2573
G1 X-1.602 Y-19.896 E0.0170
G1 X-8.248 Y-26.542 E0.2813
G1 X-8.813 Y-26.542 E0.0169
G1 X-1.602 Y-19.330 E0.3053
G1 X-1.601 Y-18.764 E0.0170
G1 X-9.379 Y-26.542 E0.3293
G1 X-9.945 Y-26.542 E0.0169
