; G-Code generated by Simplify3D(R) Version 4.0.1
; Oct 29, 2018 at 8:22:24 PM
; Settings Summary
;   processName,Process1
;   applyToModels,vasen,takaseina
;   profileName,FlashForge Creator Pro (modified)
;   profileVersion,2018-01-19 08:00:00
;   baseProfile,
;   printMaterial,PLA
;   printQuality,Medium
;   printExtruders,Right Extruder Only
;   extruderName,Right Extruder,Left Extruder
;   extruderToolheadNumber,0,1
;   extruderDiameter,0.4,0.4
;   extruderAutoWidth,0,0
;   extruderWidth,0.4,0.4
;   extrusionMultiplier,0.9,0.9
;   extruderUseRetract,1,1
;   extruderRetractionDistance,1,1
;   extruderExtraRestartDistance,0,0
;   extruderRetractionZLift,0,0
;   extruderRetractionSpeed,1200,1200
;   extruderUseCoasting,0,0
;   extruderCoastingDistance,0.2,0.2
;   extruderUseWipe,0,0
;   extruderWipeDistance,5,5
;   primaryExtruder,0
;   layerHeight,0.2
;   topSolidLayers,3
;   bottomSolidLayers,3
;   perimeterOutlines,2
;   printPerimetersInsideOut,1
;   startPointOption,2
;   startPointOriginX,0
;   startPointOriginY,0
;   sequentialIslands,0
;   spiralVaseMode,0
;   firstLayerHeightPercentage,90
;   firstLayerWidthPercentage,100
;   firstLayerUnderspeed,0.5
;   useRaft,0
;   raftExtruder,0
;   raftTopLayers,3
;   raftBaseLayers,2
;   raftOffset,3
;   raftSeparationDistance,0.14
;   raftTopInfill,100
;   aboveRaftSpeedMultiplier,0.3
;   useSkirt,1
;   skirtExtruder,0
;   skirtLayers,1
;   skirtOutlines,2
;   skirtOffset,4
;   usePrimePillar,0
;   primePillarExtruder,999
;   primePillarWidth,12
;   primePillarLocation,7
;   primePillarSpeedMultiplier,1
;   useOozeShield,0
;   oozeShieldExtruder,999
;   oozeShieldOffset,2
;   oozeShieldOutlines,1
;   oozeShieldSidewallShape,1
;   oozeShieldSidewallAngle,30
;   oozeShieldSpeedMultiplier,1
;   infillExtruder,0
;   internalInfillPattern,Rectilinear
;   externalInfillPattern,Rectilinear
;   infillPercentage,63
;   outlineOverlapPercentage,20
;   infillExtrusionWidthPercentage,100
;   minInfillLength,5
;   infillLayerInterval,1
;   internalInfillAngles,45,-45
;   overlapInternalInfillAngles,0
;   externalInfillAngles,45,-45
;   generateSupport,1
;   supportExtruder,0
;   supportInfillPercentage,30
;   supportExtraInflation,0
;   supportBaseLayers,0
;   denseSupportExtruder,0
;   denseSupportLayers,0
;   denseSupportInfillPercentage,70
;   supportLayerInterval,1
;   supportHorizontalPartOffset,0.3
;   supportUpperSeparationLayers,1
;   supportLowerSeparationLayers,1
;   supportType,0
;   supportGridSpacing,4
;   maxOverhangAngle,45
;   supportAngles,0
;   temperatureName,Right Extruder,Left Extruder,Heated Build Platform
;   temperatureNumber,0,1,0
;   temperatureSetpointCount,1,1,1
;   temperatureSetpointLayers,1,1,1
;   temperatureSetpointTemperatures,230,0,60
;   temperatureStabilizeAtStartup,0,0,0
;   temperatureHeatedBed,0,0,1
;   temperatureRelayBetweenLayers,0,0,0
;   temperatureRelayBetweenLoops,0,0,0
;   fanLayers,1,2
;   fanSpeeds,0,100
;   blipFanToFullPower,0
;   adjustSpeedForCooling,1
;   minSpeedLayerTime,15
;   minCoolingSpeedSlowdown,20
;   increaseFanForCooling,0
;   minFanLayerTime,45
;   maxCoolingFanSpeed,100
;   increaseFanForBridging,1
;   bridgingFanSpeed,100
;   use5D,1
;   relativeEdistances,1
;   allowEaxisZeroing,0
;   independentExtruderAxes,1
;   includeM10123,0
;   stickySupport,1
;   applyToolheadOffsets,0
;   gcodeXoffset,0
;   gcodeYoffset,0
;   gcodeZoffset,0
;   overrideMachineDefinition,1
;   machineTypeOverride,0
;   strokeXoverride,225
;   strokeYoverride,145
;   strokeZoverride,150
;   originOffsetXoverride,112.5
;   originOffsetYoverride,72.5
;   originOffsetZoverride,0
;   homeXdirOverride,1
;   homeYdirOverride,1
;   homeZdirOverride,-1
;   flipXoverride,1
;   flipYoverride,-1
;   flipZoverride,1
;   toolheadOffsets,0,0|34,0|0,0|0,0|0,0|0,0
;   overrideFirmwareConfiguration,1
;   firmwareTypeOverride,MakerBot/Sailfish Firmware
;   GPXconfigOverride,r1d
;   baudRateOverride,115200
;   overridePrinterModels,1
;   printerModelsOverride,FlashForge_CreatorPro.stl
;   startingGcode,; **** Replicator 1 dual start.gcode ****,M73 P0 ; enable build progress,G162 X Y F3000 ; home XY maximum,G161 Z F1200 ; home Z minimum,G92 Z-5 ; set Z to -5,G1 Z0 ; move Z to 0,G161 Z F100 ; home Z slowly,M132 X Y Z A B ; recall home offsets,M135 T0 ; load right extruder offsets,G1 X150 Y-70 Z30 F9000 ; move to wait position right hand side of the table,G130 X20 Y20 Z20 A20 B20 ; lower stepper Vrefs while heating,M126 S[fan_speed_pwm],M140 S[bed0_temperature] T0,M134 T0 ; stabilize bed temperature,M104 S[extruder0_temperature] T0,M133 T0 ; stabilize right extruder temperature,G130 X127 Y127 Z40 A127 B127 ; default stepper Vrefs,G92 A0 B0 ; zero extruders,G1 Z0.4 ; position nozzle,G1 X110 Y-70 E25 F300 ; purge nozzle,G1 X120 Y-70 Z0.15 F1200 ; slow wipe,G1 X110 Y-70 Z0.5 F1200 ; lift,G92 A0 B0 ; zero extruders,M73 P1 ;@body (notify GPX body has started),; **** end of start.gcode ****
;   layerChangeGcode,
;   retractionGcode,
;   toolChangeGcode,
;   endingGcode,; **** Replicator 1 dual end.gcode ****,M73 P100 ; end build progress,G1 Z150 F1000 ; send Z axis to bottom of machine,M140 S0 T0 ; cool down HBP,M104 S0 T0 ; cool down right extruder,M104 S0 T1 ; cool down left extruder,M127 ; stop blower fan,G162 X Y F3000 ; home XY maximum,M18 ; disable stepper,M72 P1 ; play Ta-Da song,; **** end of end.gcode ****
;   exportFileFormat,x3g
;   celebration,0
;   celebrationSong,Random Song
;   postProcessing,
;   defaultSpeed,3600
;   outlineUnderspeed,0.5
;   solidInfillUnderspeed,0.8
;   supportUnderspeed,0.8
;   rapidXYspeed,4200
;   rapidZspeed,1200
;   minBridgingArea,50
;   bridgingExtraInflation,0
;   bridgingExtrusionMultiplier,1
;   bridgingSpeedMultiplier,0.8
;   useFixedBridgingAngle,0
;   fixedBridgingAngle,0
;   applyBridgingToPerimeters,0
;   filamentDiameters,1.75|1.75|1.75|1.75|1.75|1.75
;   filamentPricesPerKg,46|46|46|46|46|46
;   filamentDensities,1.25|1.25|1.25|1.25|1.25|1.25
;   useMinPrintHeight,0
;   minPrintHeight,0
;   useMaxPrintHeight,0
;   maxPrintHeight,0
;   useDiaphragm,0
;   diaphragmLayerInterval,20
;   robustSlicing,1
;   mergeAllIntoSolid,0
;   onlyRetractWhenCrossingOutline,1
;   retractBetweenLayers,1
;   useRetractionMinTravel,0
;   retractionMinTravel,3
;   retractWhileWiping,0
;   onlyWipeOutlines,1
;   avoidCrossingOutline,0
;   maxMovementDetourFactor,3
;   toolChangeRetractionDistance,12
;   toolChangeExtraRestartDistance,-0.5
;   toolChangeRetractionSpeed,600
;   externalThinWallType,0
;   internalThinWallType,2
;   thinWallAllowedOverlapPercentage,10
;   singleExtrusionMinLength,1
;   singleExtrusionMinPrintingWidthPercentage,50
;   singleExtrusionMaxPrintingWidthPercentage,200
;   singleExtrusionEndpointExtension,0.2
;   horizontalSizeCompensation,0
G90
M83
; **** Replicator 1 dual start.gcode ****
M73 P0 ; enable build progress
G162 X Y F3000 ; home XY maximum
G161 Z F1200 ; home Z minimum
G92 Z-5 ; set Z to -5
G1 Z0 ; move Z to 0
G161 Z F100 ; home Z slowly
M132 X Y Z A B ; recall home offsets
M135 T0 ; load right extruder offsets
G1 X150 Y-70 Z30 F9000 ; move to wait position right hand side of the table
G130 X20 Y20 Z20 A20 B20 ; lower stepper Vrefs while heating
M127
M140 S60 T0
M134 T0 ; stabilize bed temperature
M104 S230 T0
M133 T0 ; stabilize right extruder temperature
G130 X127 Y127 Z40 A127 B127 ; default stepper Vrefs
G92 A0 B0 ; zero extruders
G1 Z0.4 ; position nozzle
G1 X110 Y-70 E25 F300 ; purge nozzle
G1 X120 Y-70 Z0.15 F1200 ; slow wipe
G1 X110 Y-70 Z0.5 F1200 ; lift
G92 A0 B0 ; zero extruders
M73 P1 ;@body (notify GPX body has started)
; **** end of start.gcode ****
G1 E-1.0000 F1200
G1 Z0.180 F1200
; process Process1
; layer 1, Z = 0.180
M135 T0
; tool H0.200 W0.400
; skirt
G1 X18.022 Y-33.160 F4200
G1 E1.0000 F360
G1 X18.022 Y53.773 E2.6023 F1800
G1 X17.931 Y53.994 E0.0071
G1 X15.419 Y56.506 E0.1063
G1 X15.198 Y56.597 E0.0071
G1 X5.784 Y56.597 E0.2818
G1 X5.673 Y56.643 E0.0036
G1 X-93.129 Y56.643 E2.9576
G1 X-93.240 Y56.597 E0.0036
G1 X-102.654 Y56.597 E0.2818
G1 X-102.875 Y56.506 E0.0071
G1 X-105.387 Y53.994 E0.1063
G1 X-105.478 Y53.773 E0.0071
G1 X-105.478 Y-33.160 E2.6023
G1 X-105.387 Y-33.381 E0.0071
G1 X-102.875 Y-35.893 E0.1063
G1 X-102.654 Y-35.984 E0.0071
G1 X15.198 Y-35.984 E3.5278
G1 X15.419 Y-35.893 E0.0071
G1 X17.931 Y-33.381 E0.1063
G1 X18.022 Y-33.160 E0.0071
G1 X22.813 Y-35.515 F4200
G1 X22.903 Y-35.735 E0.0071 F1800
G1 X25.402 Y-38.244 E0.1060
G1 X25.621 Y-38.336 E0.0071
G1 X65.140 Y-38.515 E1.1830
G1 X65.329 Y-38.437 E0.0061
G1 X66.439 Y-39.065 E0.0382
G1 X66.764 Y-39.060 E0.0097
G1 X103.545 Y-16.821 E1.2866
G1 X103.653 Y-16.710 E0.0046
G1 X104.760 Y-14.745 E0.0675
G1 X104.800 Y-14.596 E0.0046
G1 X104.800 Y30.532 E1.3508
G1 X104.760 Y30.682 E0.0046
G1 X103.651 Y32.647 E0.0675
G1 X103.543 Y32.758 E0.0046
G1 X68.442 Y53.953 E1.2274
G1 X68.367 Y53.985 E0.0024
G1 X67.233 Y54.301 E0.0352
G1 X67.152 Y54.312 E0.0024
G1 X35.158 Y54.278 E0.9577
G1 X35.068 Y54.240 E0.0029
G1 X25.643 Y54.258 E0.2821
G1 X25.422 Y54.166 E0.0072
G1 X22.904 Y51.654 E0.1065
G1 X22.813 Y51.433 E0.0072
G1 X22.813 Y-35.515 E2.6027
G1 X23.213 Y-35.435 F4200
G1 X23.243 Y-35.509 E0.0024 F1800
G1 X25.629 Y-37.906 E0.1013
G1 X25.702 Y-37.937 E0.0024
G1 X65.062 Y-38.114 E1.1782
G1 X65.136 Y-38.084 E0.0024
G1 X65.274 Y-37.947 E0.0058
G1 X66.542 Y-38.663 E0.0436
G1 X66.650 Y-38.661 E0.0032
G1 X103.294 Y-16.505 E1.2818
G1 X103.330 Y-16.468 E0.0015
G1 X104.387 Y-14.594 E0.0644
G1 X104.400 Y-14.544 E0.0015
G1 X104.400 Y30.480 E1.3478
G1 X104.387 Y30.530 E0.0015
G1 X103.328 Y32.405 E0.0645
G1 X103.292 Y32.442 E0.0015
G1 X68.258 Y53.597 E1.2251
G1 X68.233 Y53.607 E0.0008
G1 X67.152 Y53.908 E0.0336
G1 X67.125 Y53.912 E0.0008
G1 X35.238 Y53.878 E0.9545
G1 X35.164 Y53.847 E0.0024
G1 X35.157 Y53.840 E0.0003
G1 X25.721 Y53.857 E0.2825
G1 X25.648 Y53.827 E0.0024
G1 X23.243 Y51.427 E0.1017
G1 X23.213 Y51.353 E0.0024
G1 X23.213 Y-35.435 E2.5979
G1 X17.622 Y-33.081 F4200
G1 X17.622 Y53.694 E2.5975 F1800
G1 X17.592 Y53.767 E0.0024
G1 X15.192 Y56.166 E0.1016
G1 X15.119 Y56.197 E0.0024
G1 X5.683 Y56.197 E0.2825
G1 X5.667 Y56.212 E0.0007
G1 X5.594 Y56.243 E0.0024
G1 X-93.050 Y56.243 E2.9528
G1 X-93.123 Y56.212 E0.0024
G1 X-93.139 Y56.197 E0.0007
G1 X-102.575 Y56.197 E0.2825
G1 X-102.648 Y56.166 E0.0024
G1 X-105.047 Y53.767 E0.1016
G1 X-105.078 Y53.694 E0.0024
G1 X-105.078 Y-33.081 E2.5975
G1 X-105.047 Y-33.154 E0.0024
G1 X-102.648 Y-35.554 E0.1016
G1 X-102.575 Y-35.584 E0.0024
G1 X15.119 Y-35.584 E3.5230
G1 X15.192 Y-35.554 E0.0024
G1 X17.592 Y-33.154 E0.1016
G1 X17.622 Y-33.081 E0.0024
G1 E-1.0000 F1200
; inner perimeter
G1 X12.822 Y-30.784 F4200
G1 E1.0000 F1200
G1 X12.822 Y51.397 E2.4600 F1350
G1 X7.672 Y51.397 E0.1542
G1 X7.672 Y9.717 E1.2476
G1 X3.297 Y9.717 E0.1310
G1 X3.297 Y51.443 E1.2490
G1 X-90.753 Y51.443 E2.8153
G1 X-90.753 Y9.717 E1.2490
G1 X-95.128 Y9.717 E0.1310
G1 X-95.128 Y51.397 E1.2476
G1 X-100.278 Y51.397 E0.1542
G1 X-100.278 Y-30.784 E2.4600
G1 X12.822 Y-30.784 E3.3855
; outer perimeter
G1 X13.222 Y-31.184 F4200
G1 X13.222 Y51.797 E2.4840 F900
G1 X7.272 Y51.797 E0.1781
G1 X7.272 Y10.117 E1.2476
G1 X3.697 Y10.117 E0.1070
G1 X3.697 Y51.843 E1.2490
G1 X-91.153 Y51.843 E2.8393
G1 X-91.153 Y10.117 E1.2490
G1 X-94.728 Y10.117 E0.1070
G1 X-94.728 Y51.797 E1.2476
G1 X-100.678 Y51.797 E0.1781
G1 X-100.678 Y-31.184 E2.4840
G1 X13.222 Y-31.184 E3.4095
; inner perimeter
G1 X2.162 Y-23.011 F4200
G1 X1.814 Y-23.465 E0.0171 F1350
G1 X1.359 Y-23.814 E0.0171
G1 X0.831 Y-24.033 E0.0171
G1 X0.263 Y-24.107 E0.0171
G1 X-0.304 Y-24.033 E0.0171
G1 X-0.833 Y-23.814 E0.0171
G1 X-1.287 Y-23.465 E0.0171
G1 X-1.636 Y-23.011 E0.0171
G1 X-1.855 Y-22.482 E0.0171
G1 X-1.930 Y-21.915 E0.0171
G1 X-1.855 Y-21.347 E0.0171
G1 X-1.636 Y-20.819 E0.0171
G1 X-1.287 Y-20.364 E0.0171
G1 X-0.833 Y-20.016 E0.0171
G1 X-0.304 Y-19.797 E0.0171
G1 X0.263 Y-19.722 E0.0171
G1 X0.831 Y-19.797 E0.0171
G1 X1.359 Y-20.016 E0.0171
G1 X1.814 Y-20.364 E0.0171
G1 X2.162 Y-20.818 E0.0171
G1 X2.381 Y-21.347 E0.0171
G1 X2.456 Y-21.915 E0.0171
G1 X2.381 Y-22.482 E0.0171
G1 X2.162 Y-23.011 E0.0171
; outer perimeter
G1 X1.813 Y-22.809 F4200
G1 X1.528 Y-23.180 E0.0140 F900
G1 X1.158 Y-23.464 E0.0140
G1 X0.726 Y-23.643 E0.0140
G1 X0.263 Y-23.704 E0.0140
G1 X-0.200 Y-23.643 E0.0140
G1 X-0.632 Y-23.464 E0.0140
G1 X-1.002 Y-23.180 E0.0140
G1 X-1.286 Y-22.809 E0.0140
G1 X-1.465 Y-22.378 E0.0140
G1 X-1.526 Y-21.915 E0.0140
G1 X-1.465 Y-21.452 E0.0140
G1 X-1.286 Y-21.020 E0.0140
G1 X-1.002 Y-20.650 E0.0140
G1 X-0.632 Y-20.365 E0.0140
G1 X-0.200 Y-20.187 E0.0140
G1 X0.263 Y-20.126 E0.0140
G1 X0.726 Y-20.187 E0.0140
G1 X1.158 Y-20.365 E0.0140
G1 X1.528 Y-20.650 E0.0140
G1 X1.813 Y-21.020 E0.0140
G1 X1.991 Y-21.452 E0.0140
G1 X2.052 Y-21.915 E0.0140
G1 X1.991 Y-22.378 E0.0140
G1 X1.813 Y-22.809 E0.0140
G1 E-1.0000 F1200
; inner perimeter
G1 X-50.394 Y-13.085 F4200
G1 E1.0000 F1200
G1 X-59.214 Y-13.085 E0.2640 F1350
G1 X-59.214 Y0.815 E0.4161
G1 X-50.394 Y0.815 E0.2640
G1 X-50.394 Y-13.085 E0.4161
; outer perimeter
G1 X-50.794 Y-12.685 F4200
G1 X-58.814 Y-12.685 E0.2401 F900
G1 X-58.814 Y0.415 E0.3921
G1 X-50.794 Y0.415 E0.2401
G1 X-50.794 Y-12.685 E0.3921
; inner perimeter
G1 X-85.621 Y-21.347 F4200
G1 X-85.546 Y-21.915 E0.0171 F1350
G1 X-85.621 Y-22.482 E0.0171
G1 X-85.840 Y-23.011 E0.0171
G1 X-86.188 Y-23.465 E0.0171
G1 X-86.642 Y-23.814 E0.0171
G1 X-87.171 Y-24.033 E0.0171
G1 X-87.739 Y-24.107 E0.0171
G1 X-88.306 Y-24.033 E0.0171
G1 X-88.835 Y-23.814 E0.0171
G1 X-89.289 Y-23.465 E0.0171
G1 X-89.637 Y-23.011 E0.0171
G1 X-89.856 Y-22.482 E0.0171
G1 X-89.931 Y-21.915 E0.0171
G1 X-89.856 Y-21.347 E0.0171
G1 X-89.637 Y-20.818 E0.0171
G1 X-89.289 Y-20.364 E0.0171
G1 X-88.835 Y-20.016 E0.0171
G1 X-88.306 Y-19.797 E0.0171
G1 X-87.739 Y-19.722 E0.0171
G1 X-87.171 Y-19.797 E0.0171
G1 X-86.642 Y-20.016 E0.0171
G1 X-86.188 Y-20.364 E0.0171
G1 X-85.840 Y-20.818 E0.0171
G1 X-85.621 Y-21.347 E0.0171
; outer perimeter
G1 X-86.010 Y-21.452 F4200
G1 X-85.949 Y-21.915 E0.0140 F900
G1 X-86.010 Y-22.378 E0.0140
G1 X-86.189 Y-22.809 E0.0140
G1 X-86.473 Y-23.180 E0.0140
G1 X-86.844 Y-23.464 E0.0140
G1 X-87.275 Y-23.643 E0.0140
G1 X-87.739 Y-23.704 E0.0140
G1 X-88.202 Y-23.643 E0.0140
G1 X-88.633 Y-23.464 E0.0140
G1 X-89.004 Y-23.180 E0.0140
G1 X-89.288 Y-22.809 E0.0140
G1 X-89.467 Y-22.378 E0.0140
G1 X-89.528 Y-21.915 E0.0140
G1 X-89.467 Y-21.452 E0.0140
G1 X-89.288 Y-21.020 E0.0140
G1 X-89.004 Y-20.650 E0.0140
G1 X-88.633 Y-20.365 E0.0140
G1 X-88.202 Y-20.187 E0.0140
G1 X-87.739 Y-20.126 E0.0140
G1 X-87.275 Y-20.187 E0.0140
G1 X-86.844 Y-20.365 E0.0140
G1 X-86.473 Y-20.650 E0.0140
G1 X-86.189 Y-21.020 E0.0140
G1 X-86.010 Y-21.452 E0.0140
; inner perimeter
G1 X-52.847 Y28.761 F4200
G1 X-52.847 Y34.824 E0.1815 F1350
G1 X-31.442 Y34.824 E0.6408
G1 X-31.442 Y28.761 E0.1815
G1 X-52.847 Y28.761 E0.6408
; outer perimeter
G1 X-52.447 Y29.161 F4200
G1 X-52.447 Y34.424 E0.1575 F900
G1 X-31.842 Y34.424 E0.6168
G1 X-31.842 Y29.161 E0.1575
G1 X-52.447 Y29.161 E0.6168
G1 E-1.0000 F1200
; inner perimeter
G1 X-47.503 Y45.907 F4200
G1 E1.0000 F1200
G1 X-47.503 Y50.155 E0.1272 F1350
G1 X-39.953 Y50.155 E0.2260
G1 X-39.953 Y45.907 E0.1272
G1 X-47.503 Y45.907 E0.2260
; outer perimeter
G1 X-47.103 Y46.307 F4200
G1 X-47.103 Y49.755 E0.1032 F900
G1 X-40.353 Y49.755 E0.2021
G1 X-40.353 Y46.307 E0.1032
G1 X-47.103 Y46.307 E0.2021
; inner perimeter
G1 X-85.546 Y43.085 F4200
G1 X-85.621 Y42.518 E0.0171 F1350
G1 X-85.840 Y41.989 E0.0171
G1 X-86.188 Y41.535 E0.0171
G1 X-86.642 Y41.186 E0.0171
G1 X-87.171 Y40.967 E0.0171
G1 X-87.739 Y40.893 E0.0171
G1 X-88.306 Y40.967 E0.0171
G1 X-88.835 Y41.186 E0.0171
G1 X-89.289 Y41.535 E0.0171
G1 X-89.637 Y41.989 E0.0171
G1 X-89.856 Y42.518 E0.0171
G1 X-89.931 Y43.085 E0.0171
G1 X-89.856 Y43.653 E0.0171
G1 X-89.637 Y44.182 E0.0171
G1 X-89.289 Y44.636 E0.0171
G1 X-88.835 Y44.984 E0.0171
G1 X-88.306 Y45.203 E0.0171
G1 X-87.739 Y45.278 E0.0171
G1 X-87.171 Y45.203 E0.0171
G1 X-86.642 Y44.984 E0.0171
G1 X-86.188 Y44.636 E0.0171
G1 X-85.840 Y44.182 E0.0171
G1 X-85.621 Y43.653 E0.0171
